packages/tokens/icons/moonAndStars/size24Px.svg

<svg viewBox="0 0 24 24" fill="none" xmlns="http://www.w3.org/2000/svg" width="1em" height="1em"><path d="M4.75003 16.5828C7.23531 20.8874 12.5308 22.4828 16.5779 20.1463C17.1463 19.8181 17.935 19.2709 18.533 18.7521C18.7143 18.5947 18.5697 18.322 18.3313 18.3501C14.9374 18.7509 11.0238 17.2955 9.14677 14.0443C7.26974 10.7932 7.96613 6.6762 10.0101 3.93738C10.1537 3.74496 9.9898 3.48343 9.76286 3.56179C9.01453 3.82015 8.14634 4.22963 7.57794 4.55779C3.53085 6.89438 2.26475 12.2782 4.75003 16.5828Z" stroke="currentColor" stroke-linejoin="round"/><path d="M15.5 13V13.5M17 11.5H17.5M13.5 11.5H14M15.5 9.5V10" stroke="currentColor" stroke-linecap="round"/><path d="M19.5 13.5V14.5M19.5 14.5V15.5M19.5 14.5H18.5M19.5 14.5H20.5M19.5 6.5V7.5M19.5 7.5V8.5M19.5 7.5H18.5M19.5 7.5H20.5" stroke="currentColor" stroke-linecap="round"/></svg>

<svg xmlns="http://www.w3.org/2000/svg" fill="none" viewBox="0 0 24 24" width="1em" height="1em"><path stroke="currentColor" stroke-linejoin="round" d="M4.75 16.583c2.485 4.304 7.78 5.9 11.828 3.563a13.93 13.93 0 0 0 1.955-1.394c.181-.157.037-.43-.202-.402-3.394.4-7.307-1.055-9.184-4.306-1.877-3.25-1.18-7.368.863-10.107.144-.192-.02-.454-.247-.375-.748.258-1.617.668-2.185.996-4.047 2.336-5.313 7.72-2.828 12.025Z"/><path stroke="currentColor" stroke-linecap="round" d="M15.5 13v.5m1.5-2h.5m-4 0h.5m1.5-2v.5m4 3.5v1m0 0v1m0-1h-1m1 0h1m-1-8v1m0 0v1m0-1h-1m1 0h1"/></svg>
